X: 4105
T: Mrs Peggy Dykes
C: Muriel Johnstone
O: RSCDS 41-5
B: RSCDS 41-5
R: strathspey
Z: 2011 John Chambers <jc:trillian.mit.edu>
M: C
L: 1/16
K: C
A2 |\
"C"Gc3 ce3 "F"f3e "G7"d2ef | "C"e3d ce3 "F"AG3 "G7"G3F |\
"C"E3G ce3 "Dm"d3e f3g | "Dm"ad3 d3e "G7"f4- f2g2 |
"C"Gc3 ce3 "F"f3e "G7"d2ef | "C"e3d  ce3 "F"AG3 "G7"G3F |\
"C"E3G c3d "Am"e2de "F"fedc | "Dm"Ac3 "G7"e3d "C"c4- c3B ||
"C"cC3 Cc3 "G7"B3G d3B | "C"cC3 EG3 c3d eg3 |\
"Dm"ad3 d3e "Dm"f3e d3c | "Am"eA3 "F"A3G "G7"G4- G3B |
"C"cC3 Cc3 "G7"B3A G3d | "Am"ec3 "F"c3d "C7"e3f g3G |\
"F"A3B c3d "C"e2de "F"fedc | "Dm"Ac3 "G7"e3d "C"c6 |]
